static/img/kroki/7c0c68f0571d3e0836c87eced2b8759e.svg

<?xml version="1.0" encoding="us-ascii" standalone="no"?><svg xmlns="http://www.w3.org/2000/svg" xmlns:xlink="http://www.w3.org/1999/xlink" contentStyleType="text/css" height="1033px" preserveAspectRatio="none" style="width:495px;height:1033px;" version="1.1" viewBox="0 0 495 1033" width="495px" zoomAndPan="magnify"><defs/><g><!--class aws_cloudwatch_metric_filter--><g id="elem_aws_cloudwatch_metric_filter"><rect codeLine="23" fill="#3D176E" height="126.6797" id="aws_cloudwatch_metric_filter" rx="2.5" ry="2.5" style="stroke:#000D19;stroke-width:0.5;" width="481" x="7" y="633.84"/><ellipse cx="113.75" cy="653.7345" fill="#ADD1B2" rx="11" ry="11" style="stroke:#181818;stroke-width:1.0;"/><path d="M116.7188,659.3752 Q116.1406,659.672 115.5,659.8127 Q114.8594,659.9689 114.1563,659.9689 Q111.6563,659.9689 110.3281,658.3283 Q109.0156,656.672 109.0156,653.547 Q109.0156,650.422 110.3281,648.7658 Q111.6563,647.1095 114.1563,647.1095 Q114.8594,647.1095 115.5,647.2658 Q116.1563,647.422 116.7188,647.7189 L116.7188,650.4377 Q116.0938,649.8595 115.5,649.5939 Q114.9063,649.3127 114.2813,649.3127 Q112.9375,649.3127 112.25,650.3908 Q111.5625,651.4533 111.5625,653.547 Q111.5625,655.6408 112.25,656.7189 Q112.9375,657.7814 114.2813,657.7814 Q114.9063,657.7814 115.5,657.5158 Q116.0938,657.2345 116.7188,656.6564 L116.7188,659.3752 Z " fill="#000000"/><text fill="#D9B8FF" font-family="Helvetica" font-size="17" lengthAdjust="spacing" textLength="249" x="139.25" y="659.6198">aws_cloudwatch_metric_filter</text><line style="stroke:#000D19;stroke-width:0.5;" x1="8" x2="487" y1="673.6291" y2="673.6291"/><text fill="#D9B8FF" font-family="sans-serif" font-size="14" font-weight="bold" lengthAdjust="spacing" textLength="102" x="18" y="695.6242">filter_pattern</text><text fill="#D9B8FF" font-family="sans-serif" font-size="14" lengthAdjust="spacing" textLength="48" x="120" y="695.6242">: string</text><text fill="#D9B8FF" font-family="sans-serif" font-size="14" font-weight="bold" lengthAdjust="spacing" textLength="170" x="18" y="721.9211">filter_transformations</text><text fill="#D9B8FF" font-family="sans-serif" font-size="14" lengthAdjust="spacing" textLength="289" x="188" y="721.9211">: aws_cloudwatch_metric_transformation[]</text><text fill="#D9B8FF" font-family="sans-serif" font-size="14" font-weight="bold" lengthAdjust="spacing" textLength="128" x="18" y="748.2179">log_group_name</text><text fill="#D9B8FF" font-family="sans-serif" font-size="14" lengthAdjust="spacing" textLength="48" x="146" y="748.2179">: string</text></g><!--class aws_cloudwatch_metric_transformation--><g id="elem_aws_cloudwatch_metric_transformation"><rect codeLine="28" fill="#3D176E" height="205.5703" id="aws_cloudwatch_metric_transformation" rx="2.5" ry="2.5" style="stroke:#000D19;stroke-width:0.5;" width="377" x="59" y="820.52"/><ellipse cx="74" cy="840.4145" fill="#ADD1B2" rx="11" ry="11" style="stroke:#181818;stroke-width:1.0;"/><path d="M76.9688,846.0552 Q76.3906,846.352 75.75,846.4927 Q75.1094,846.6489 74.4063,846.6489 Q71.9063,846.6489 70.5781,845.0083 Q69.2656,843.352 69.2656,840.227 Q69.2656,837.102 70.5781,835.4458 Q71.9063,833.7895 74.4063,833.7895 Q75.1094,833.7895 75.75,833.9458 Q76.4063,834.102 76.9688,834.3989 L76.9688,837.1177 Q76.3438,836.5395 75.75,836.2739 Q75.1563,835.9927 74.5313,835.9927 Q73.1875,835.9927 72.5,837.0708 Q71.8125,838.1333 71.8125,840.227 Q71.8125,842.3208 72.5,843.3989 Q73.1875,844.4614 74.5313,844.4614 Q75.1563,844.4614 75.75,844.1958 Q76.3438,843.9145 76.9688,843.3364 L76.9688,846.0552 Z " fill="#000000"/><text fill="#D9B8FF" font-family="Helvetica" font-size="17" lengthAdjust="spacing" textLength="335" x="93" y="846.2998">aws_cloudwatch_metric_transformation</text><line style="stroke:#000D19;stroke-width:0.5;" x1="60" x2="435" y1="860.3091" y2="860.3091"/><text fill="#D9B8FF" font-family="sans-serif" font-size="14" font-weight="bold" lengthAdjust="spacing" textLength="104" x="70" y="882.3042">default_value</text><text fill="#D9B8FF" font-family="sans-serif" font-size="14" lengthAdjust="spacing" textLength="57" x="174" y="882.3042">: double</text><text fill="#D9B8FF" font-family="sans-serif" font-size="14" font-weight="bold" lengthAdjust="spacing" textLength="90" x="70" y="908.6011">dimensions</text><text fill="#D9B8FF" font-family="sans-serif" font-size="14" lengthAdjust="spacing" textLength="171" x="160" y="908.6011">: dictionary[string, string]</text><text fill="#D9B8FF" font-family="sans-serif" font-size="14" font-weight="bold" lengthAdjust="spacing" textLength="100" x="70" y="934.8979">metric_name</text><text fill="#D9B8FF" font-family="sans-serif" font-size="14" lengthAdjust="spacing" textLength="48" x="170" y="934.8979">: string</text><text fill="#D9B8FF" font-family="sans-serif" font-size="14" font-weight="bold" lengthAdjust="spacing" textLength="147" x="70" y="961.1948">metric_namespace</text><text fill="#D9B8FF" font-family="sans-serif" font-size="14" lengthAdjust="spacing" textLength="48" x="217" y="961.1948">: string</text><text fill="#D9B8FF" font-family="sans-serif" font-size="14" font-weight="bold" lengthAdjust="spacing" textLength="99" x="70" y="987.4917">metric_value</text><text fill="#D9B8FF" font-family="sans-serif" font-size="14" lengthAdjust="spacing" textLength="48" x="169" y="987.4917">: string</text><text fill="#D9B8FF" font-family="sans-serif" font-size="14" font-weight="bold" lengthAdjust="spacing" textLength="30" x="70" y="1013.7886">unit</text><text fill="#D9B8FF" font-family="sans-serif" font-size="14" lengthAdjust="spacing" textLength="48" x="100" y="1013.7886">: string</text></g><!--class aws_resource--><g id="elem_aws_resource"><rect codeLine="36" fill="#3D176E" height="74.0859" id="aws_resource" rx="2.5" ry="2.5" style="stroke:#000D19;stroke-width:0.5;" width="155" x="170" y="438.75"/><ellipse cx="185" cy="458.6445" fill="#ADD1B2" rx="11" ry="11" style="stroke:#181818;stroke-width:1.0;"/><path d="M187.9688,464.2852 Q187.3906,464.582 186.75,464.7227 Q186.1094,464.8789 185.4063,464.8789 Q182.9063,464.8789 181.5781,463.2383 Q180.2656,461.582 180.2656,458.457 Q180.2656,455.332 181.5781,453.6758 Q182.9063,452.0195 185.4063,452.0195 Q186.1094,452.0195 186.75,452.1758 Q187.4063,452.332 187.9688,452.6289 L187.9688,455.3477 Q187.3438,454.7695 186.75,454.5039 Q186.1563,454.2227 185.5313,454.2227 Q184.1875,454.2227 183.5,455.3008 Q182.8125,456.3633 182.8125,458.457 Q182.8125,460.5508 183.5,461.6289 Q184.1875,462.6914 185.5313,462.6914 Q186.1563,462.6914 186.75,462.4258 Q187.3438,462.1445 187.9688,461.5664 L187.9688,464.2852 Z " fill="#000000"/><text fill="#D9B8FF" font-family="Helvetica" font-size="17" lengthAdjust="spacing" textLength="113" x="204" y="464.5298">aws_resource</text><line style="stroke:#000D19;stroke-width:0.5;" x1="171" x2="324" y1="478.5391" y2="478.5391"/><text fill="#D9B8FF" font-family="sans-serif" font-size="14" font-weight="bold" lengthAdjust="spacing" textLength="26" x="181" y="500.5342">arn</text><text fill="#D9B8FF" font-family="sans-serif" font-size="14" lengthAdjust="spacing" textLength="48" x="207" y="500.5342">: string</text></g><!--class resource--><g id="elem_resource"><rect codeLine="39" fill="#3D176E" height="310.7578" id="resource" rx="2.5" ry="2.5" style="stroke:#000D19;stroke-width:0.5;" width="227" x="134" y="7"/><ellipse cx="202.75" cy="26.8945" fill="#ADD1B2" rx="11" ry="11" style="stroke:#181818;stroke-width:1.0;"/><path d="M205.7188,32.5352 Q205.1406,32.832 204.5,32.9727 Q203.8594,33.1289 203.1563,33.1289 Q200.6563,33.1289 199.3281,31.4883 Q198.0156,29.832 198.0156,26.707 Q198.0156,23.582 199.3281,21.9258 Q200.6563,20.2695 203.1563,20.2695 Q203.8594,20.2695 204.5,20.4258 Q205.1563,20.582 205.7188,20.8789 L205.7188,23.5977 Q205.0938,23.0195 204.5,22.7539 Q203.9063,22.4727 203.2813,22.4727 Q201.9375,22.4727 201.25,23.5508 Q200.5625,24.6133 200.5625,26.707 Q200.5625,28.8008 201.25,29.8789 Q201.9375,30.9414 203.2813,30.9414 Q203.9063,30.9414 204.5,30.6758 Q205.0938,30.3945 205.7188,29.8164 L205.7188,32.5352 Z " fill="#000000"/><text fill="#D9B8FF" font-family="Helvetica" font-size="17" lengthAdjust="spacing" textLength="71" x="228.25" y="32.7798">resource</text><line style="stroke:#000D19;stroke-width:0.5;" x1="135" x2="360" y1="46.7891" y2="46.7891"/><text fill="#D9B8FF" font-family="sans-serif" font-size="14" font-weight="bold" lengthAdjust="spacing" textLength="29" x="145" y="68.7842">age</text><text fill="#D9B8FF" font-family="sans-serif" font-size="14" lengthAdjust="spacing" textLength="66" x="174" y="68.7842">: duration</text><text fill="#D9B8FF" font-family="sans-serif" font-size="14" font-weight="bold" lengthAdjust="spacing" textLength="43" x="145" y="95.0811">atime</text><text fill="#D9B8FF" font-family="sans-serif" font-size="14" lengthAdjust="spacing" textLength="70" x="188" y="95.0811">: datetime</text><text fill="#D9B8FF" font-family="sans-serif" font-size="14" font-weight="bold" lengthAdjust="spacing" textLength="43" x="145" y="121.3779">ctime</text><text fill="#D9B8FF" font-family="sans-serif" font-size="14" lengthAdjust="spacing" textLength="70" x="188" y="121.3779">: datetime</text><text fill="#D9B8FF" font-family="sans-serif" font-size="14" font-weight="bold" lengthAdjust="spacing" textLength="14" x="145" y="147.6748">id</text><text fill="#D9B8FF" font-family="sans-serif" font-size="14" lengthAdjust="spacing" textLength="48" x="159" y="147.6748">: string</text><text fill="#D9B8FF" font-family="sans-serif" font-size="14" font-weight="bold" lengthAdjust="spacing" textLength="33" x="145" y="173.9717">kind</text><text fill="#D9B8FF" font-family="sans-serif" font-size="14" lengthAdjust="spacing" textLength="48" x="178" y="173.9717">: string</text><text fill="#D9B8FF" font-family="sans-serif" font-size="14" font-weight="bold" lengthAdjust="spacing" textLength="90" x="145" y="200.2686">last_access</text><text fill="#D9B8FF" font-family="sans-serif" font-size="14" lengthAdjust="spacing" textLength="66" x="235" y="200.2686">: duration</text><text fill="#D9B8FF" font-family="sans-serif" font-size="14" font-weight="bold" lengthAdjust="spacing" textLength="90" x="145" y="226.5654">last_update</text><text fill="#D9B8FF" font-family="sans-serif" font-size="14" lengthAdjust="spacing" textLength="66" x="235" y="226.5654">: duration</text><text fill="#D9B8FF" font-family="sans-serif" font-size="14" font-weight="bold" lengthAdjust="spacing" textLength="48" x="145" y="252.8623">mtime</text><text fill="#D9B8FF" font-family="sans-serif" font-size="14" lengthAdjust="spacing" textLength="70" x="193" y="252.8623">: datetime</text><text fill="#D9B8FF" font-family="sans-serif" font-size="14" font-weight="bold" lengthAdjust="spacing" textLength="43" x="145" y="279.1592">name</text><text fill="#D9B8FF" font-family="sans-serif" font-size="14" lengthAdjust="spacing" textLength="48" x="188" y="279.1592">: string</text><text fill="#D9B8FF" font-family="sans-serif" font-size="14" font-weight="bold" lengthAdjust="spacing" textLength="34" x="145" y="305.4561">tags</text><text fill="#D9B8FF" font-family="sans-serif" font-size="14" lengthAdjust="spacing" textLength="171" x="179" y="305.4561">: dictionary[string, string]</text></g><!--link aws_cloudwatch_metric_filter to aws_cloudwatch_metric_transformation--><g id="link_aws_cloudwatch_metric_filter_aws_cloudwatch_metric_transformation"><path codeLine="51" d="M247.5,760.91 C247.5,779.3 247.5,793.9 247.5,814.08 " fill="none" id="aws_cloudwatch_metric_filter-to-aws_cloudwatch_metric_transformation" style="stroke:#FFAF37;stroke-width:2.0;"/><polygon fill="#FFAF37" points="247.5,820.08,251.5,811.08,247.5,815.08,243.5,811.08,247.5,820.08" style="stroke:#FFAF37;stroke-width:2.0;"/></g><!--reverse link aws_resource to aws_cloudwatch_metric_filter--><g id="link_aws_resource_aws_cloudwatch_metric_filter"><path codeLine="52" d="M247.5,531.02 C247.5,563.76 247.5,594.66 247.5,633.69 " fill="none" id="aws_resource-backto-aws_cloudwatch_metric_filter" style="stroke:#FFAF37;stroke-width:2.0;"/><polygon fill="none" points="247.5,513.02,241.5,531.02,253.5,531.02,247.5,513.02" style="stroke:#FFAF37;stroke-width:2.0;"/></g><!--reverse link resource to aws_resource--><g id="link_resource_aws_resource"><path codeLine="53" d="M247.5,336.17 C247.5,381.21 247.5,408.34 247.5,438.51 " fill="none" id="resource-backto-aws_resource" style="stroke:#FFAF37;stroke-width:2.0;"/><polygon fill="none" points="247.5,318.17,241.5,336.17,253.5,336.17,247.5,318.17" style="stroke:#FFAF37;stroke-width:2.0;"/></g><!--SRC=[ZPHFYzim4CNl_XI6lOKQaYvjDgKKje7INfRIxMqfPYAD715PCj9eGzhkTwza9rd_YzDJpBnVthmPJxAL75CiApga9PORj2vnEwahi52czzQQ_TeeOzCR8K3SBllY5wFfAl009QPVKJqZIGPzukTMifr6vzAtBUapi5rXZTUyiISBsWK9DRMejGBdxecit7Z2LXY-sjm9qIVxfZUtVB5yZmFCM8xsYCpdSxvOzP6hhIRdFXEFyZUcY_RI7WpX8EQWHKrDfen4A-HWq9D-CUDtu5pg8dtNglreCbcDjbD_t08t-qWBKAxTnX5QD7IeS3sO2bTtN2n7uM-Nu8J5rQMmTpbJnlCz4Dlc9OOBOBcGAZYaVvBPh7dCAw3meMUp3y7SXe2lKdrGmjWII1hj8ZBksWMVVWKBPOeyfgjo7TRNSd-PpDTrgdDo5E0LvS-WV6t4ZTyeZ8eiKRjJD2vP_0xOmrFJwisnPOnpjEzbwTJ3JuUDYkV6Py5hIHT6ikYCjmphwD3Pwmdh8aKpaxVrnB52iWd9WJ0-XneRgKdUoHHEf5i8lIW7niBVHgz3hVWgUlMKSgJFO6S4nRM5loIJvvTbd_xh_IUTZNxycsNPv5qd8-ofbFm3]--></g></svg>

<svg xmlns="http://www.w3.org/2000/svg" width="495" height="1033" viewBox="0 0 495 1033"><rect width="481" height="126.68" x="7" y="633.84" fill="#3D176E" rx="2.5" ry="2.5" style="stroke:#000d19;stroke-width:.5"/><circle cx="113.75" cy="653.735" r="11" fill="#ADD1B2" style="stroke:#181818;stroke-width:1"/><path d="M116.719 659.375q-.578.297-1.219.438-.64.156-1.344.156-2.5 0-3.828-1.64-1.312-1.657-1.312-4.782t1.312-4.781q1.328-1.656 3.828-1.656.703 0 1.344.156.656.156 1.219.453v2.719q-.625-.578-1.219-.844-.594-.281-1.219-.281-1.344 0-2.031 1.078-.687 1.062-.687 3.156t.687 3.172q.688 1.062 2.031 1.062.625 0 1.219-.265.594-.281 1.219-.86z"/><text x="139.25" y="659.62" fill="#D9B8FF" font-family="Helvetica" font-size="17" textLength="249">aws_cloudwatch_metric_filter</text><path d="M8 673.629h479" style="stroke:#000d19;stroke-width:.5"/><text x="18" y="695.624" fill="#D9B8FF" font-family="sans-serif" font-size="14" font-weight="bold" textLength="102">filter_pattern</text><text x="120" y="695.624" fill="#D9B8FF" font-family="sans-serif" font-size="14" textLength="48">: string</text><text x="18" y="721.921" fill="#D9B8FF" font-family="sans-serif" font-size="14" font-weight="bold" textLength="170">filter_transformations</text><text x="188" y="721.921" fill="#D9B8FF" font-family="sans-serif" font-size="14" textLength="289">: aws_cloudwatch_metric_transformation[]</text><text x="18" y="748.218" fill="#D9B8FF" font-family="sans-serif" font-size="14" font-weight="bold" textLength="128">log_group_name</text><text x="146" y="748.218" fill="#D9B8FF" font-family="sans-serif" font-size="14" textLength="48">: string</text><rect width="377" height="205.57" x="59" y="820.52" fill="#3D176E" rx="2.5" ry="2.5" style="stroke:#000d19;stroke-width:.5"/><circle cx="74" cy="840.414" r="11" fill="#ADD1B2" style="stroke:#181818;stroke-width:1"/><path d="M76.969 846.055q-.578.297-1.219.438-.64.156-1.344.156-2.5 0-3.828-1.64-1.312-1.657-1.312-4.782t1.312-4.781q1.328-1.657 3.828-1.657.703 0 1.344.157.656.156 1.219.453v2.719q-.625-.579-1.219-.844-.594-.281-1.219-.281-1.344 0-2.031 1.078-.687 1.062-.687 3.156t.687 3.172q.688 1.062 2.031 1.062.625 0 1.219-.265.594-.282 1.219-.86z"/><text x="93" y="846.3" fill="#D9B8FF" font-family="Helvetica" font-size="17" textLength="335">aws_cloudwatch_metric_transformation</text><path d="M60 860.309h375" style="stroke:#000d19;stroke-width:.5"/><text x="70" y="882.304" fill="#D9B8FF" font-family="sans-serif" font-size="14" font-weight="bold" textLength="104">default_value</text><text x="174" y="882.304" fill="#D9B8FF" font-family="sans-serif" font-size="14" textLength="57">: double</text><text x="70" y="908.601" fill="#D9B8FF" font-family="sans-serif" font-size="14" font-weight="bold" textLength="90">dimensions</text><text x="160" y="908.601" fill="#D9B8FF" font-family="sans-serif" font-size="14" textLength="171">: dictionary[string, string]</text><text x="70" y="934.898" fill="#D9B8FF" font-family="sans-serif" font-size="14" font-weight="bold" textLength="100">metric_name</text><text x="170" y="934.898" fill="#D9B8FF" font-family="sans-serif" font-size="14" textLength="48">: string</text><text x="70" y="961.195" fill="#D9B8FF" font-family="sans-serif" font-size="14" font-weight="bold" textLength="147">metric_namespace</text><text x="217" y="961.195" fill="#D9B8FF" font-family="sans-serif" font-size="14" textLength="48">: string</text><text x="70" y="987.492" fill="#D9B8FF" font-family="sans-serif" font-size="14" font-weight="bold" textLength="99">metric_value</text><text x="169" y="987.492" fill="#D9B8FF" font-family="sans-serif" font-size="14" textLength="48">: string</text><text x="70" y="1013.789" fill="#D9B8FF" font-family="sans-serif" font-size="14" font-weight="bold" textLength="30">unit</text><text x="100" y="1013.789" fill="#D9B8FF" font-family="sans-serif" font-size="14" textLength="48">: string</text><rect width="155" height="74.086" x="170" y="438.75" fill="#3D176E" rx="2.5" ry="2.5" style="stroke:#000d19;stroke-width:.5"/><circle cx="185" cy="458.644" r="11" fill="#ADD1B2" style="stroke:#181818;stroke-width:1"/><path d="M187.969 464.285q-.578.297-1.219.438-.64.156-1.344.156-2.5 0-3.828-1.64-1.312-1.657-1.312-4.782t1.312-4.781q1.328-1.656 3.828-1.656.703 0 1.344.156.656.156 1.219.453v2.719q-.625-.579-1.219-.844-.594-.281-1.219-.281-1.344 0-2.031 1.078-.687 1.062-.687 3.156t.687 3.172q.688 1.062 2.031 1.062.625 0 1.219-.265.594-.281 1.219-.86z"/><text x="204" y="464.53" fill="#D9B8FF" font-family="Helvetica" font-size="17" textLength="113">aws_resource</text><path d="M171 478.539h153" style="stroke:#000d19;stroke-width:.5"/><text x="181" y="500.534" fill="#D9B8FF" font-family="sans-serif" font-size="14" font-weight="bold" textLength="26">arn</text><text x="207" y="500.534" fill="#D9B8FF" font-family="sans-serif" font-size="14" textLength="48">: string</text><rect width="227" height="310.758" x="134" y="7" fill="#3D176E" rx="2.5" ry="2.5" style="stroke:#000d19;stroke-width:.5"/><circle cx="202.75" cy="26.895" r="11" fill="#ADD1B2" style="stroke:#181818;stroke-width:1"/><path d="M205.719 32.535q-.578.297-1.219.438-.64.156-1.344.156-2.5 0-3.828-1.64-1.312-1.657-1.312-4.782t1.312-4.781q1.328-1.656 3.828-1.656.703 0 1.344.156.656.156 1.219.453v2.719q-.625-.578-1.219-.844-.594-.281-1.219-.281-1.344 0-2.031 1.078-.687 1.062-.687 3.156t.687 3.172q.688 1.062 2.031 1.062.625 0 1.219-.265.594-.281 1.219-.86z"/><text x="228.25" y="32.78" fill="#D9B8FF" font-family="Helvetica" font-size="17" textLength="71">resource</text><path d="M135 46.789h225" style="stroke:#000d19;stroke-width:.5"/><text x="145" y="68.784" fill="#D9B8FF" font-family="sans-serif" font-size="14" font-weight="bold" textLength="29">age</text><text x="174" y="68.784" fill="#D9B8FF" font-family="sans-serif" font-size="14" textLength="66">: duration</text><text x="145" y="95.081" fill="#D9B8FF" font-family="sans-serif" font-size="14" font-weight="bold" textLength="43">atime</text><text x="188" y="95.081" fill="#D9B8FF" font-family="sans-serif" font-size="14" textLength="70">: datetime</text><text x="145" y="121.378" fill="#D9B8FF" font-family="sans-serif" font-size="14" font-weight="bold" textLength="43">ctime</text><text x="188" y="121.378" fill="#D9B8FF" font-family="sans-serif" font-size="14" textLength="70">: datetime</text><text x="145" y="147.675" fill="#D9B8FF" font-family="sans-serif" font-size="14" font-weight="bold" textLength="14">id</text><text x="159" y="147.675" fill="#D9B8FF" font-family="sans-serif" font-size="14" textLength="48">: string</text><text x="145" y="173.972" fill="#D9B8FF" font-family="sans-serif" font-size="14" font-weight="bold" textLength="33">kind</text><text x="178" y="173.972" fill="#D9B8FF" font-family="sans-serif" font-size="14" textLength="48">: string</text><text x="145" y="200.269" fill="#D9B8FF" font-family="sans-serif" font-size="14" font-weight="bold" textLength="90">last_access</text><text x="235" y="200.269" fill="#D9B8FF" font-family="sans-serif" font-size="14" textLength="66">: duration</text><text x="145" y="226.565" fill="#D9B8FF" font-family="sans-serif" font-size="14" font-weight="bold" textLength="90">last_update</text><text x="235" y="226.565" fill="#D9B8FF" font-family="sans-serif" font-size="14" textLength="66">: duration</text><text x="145" y="252.862" fill="#D9B8FF" font-family="sans-serif" font-size="14" font-weight="bold" textLength="48">mtime</text><text x="193" y="252.862" fill="#D9B8FF" font-family="sans-serif" font-size="14" textLength="70">: datetime</text><text x="145" y="279.159" fill="#D9B8FF" font-family="sans-serif" font-size="14" font-weight="bold" textLength="43">name</text><text x="188" y="279.159" fill="#D9B8FF" font-family="sans-serif" font-size="14" textLength="48">: string</text><text x="145" y="305.456" fill="#D9B8FF" font-family="sans-serif" font-size="14" font-weight="bold" textLength="34">tags</text><text x="179" y="305.456" fill="#D9B8FF" font-family="sans-serif" font-size="14" textLength="171">: dictionary[string, string]</text><path fill="none" d="M247.5 760.91v53.17" style="stroke:#ffaf37;stroke-width:2"/><path fill="#FFAF37" d="m247.5 820.08 4-9-4 4-4-4z" style="stroke:#ffaf37;stroke-width:2"/><path fill="none" d="M247.5 531.02v102.67m0-120.67-6 18h12zm0-176.85v102.34m0-120.34-6 18h12z" style="stroke:#ffaf37;stroke-width:2"/></svg>
